X: 8593
T: Cronin's
R: reel
M: 4/4
K: Cmajor
|:~C3 D EG ~G2|cd ~d2 cA ~A2|Ac ~c2 Aa ~a2|1 gecd ed ~d2:|2 gedf ec ~c2||
|:~g3 a ge ~e2|fedc ec ~c2|Ac ~c2 Aa ~a2|1 gecd ed ~d2|2 gedf ec ~c2||

